X: 33886
T: Red House
R: reel
M: 4/4
K: Gminor
|:G2g2 g2fe|d4 B4|A2f2 f2ed|c4 A4|
G2g2 g2fe|d4 B4|cBAG F2GA|1 B2G2 G4:|2 B2G2 G2||
|:Bc|d2B2 G2Bc|d4 B4|cBAG FGAB|c4 B2A2|
dcBA G2Bc|d4 B4|cBAG F2GA|B2G2 G2:|
|:Bc|d2d2 d2Bc|d2d2 d2AB|c2c2 c2AB|c2c2 c2Bc|
d2d2 d2Bc|d2d2 d2g2|f2g2 a2^f2|1 g6:|2 g8||

